!!!COM: Palestrina, Giovanni Perluigi da
!!!OPR: Dies sanctificatus
!!!OTL: Benedictus
**kern	**kern	**kern	**kern
*Itenor	*Icalto	*Icant	*Icant
!Tenor	!Altus	!Cantus 2	!Cantus 1
*clefGv2	*clefG2	*clefG2	*clefG2
*k[]	*k[]	*k[]	*k[]
*G:mix	*G:mix	*G:mix	*G:mix
*M4/2	*M4/2	*M4/2	*M4/2
=1	=1	=1	=1
0G	0r	0r	0r
=2	=2	=2	=2
1G	0r	0r	0r
1c	.	.	.
=3	=3	=3	=3
2c	0r	0r	0g
2B	.	.	.
2.e	.	.	.
4d	.	.	.
=4	=4	=4	=4
2c	0r	0r	1g
2B	.	.	.
1A	.	.	1cc
=5	=5	=5	=5
2G	0r	0g	2cc
2G	.	.	2b
4c	.	.	2.ee
4B	.	.	.
4c	.	.	.
4d	.	.	4dd
=6	=6	=6	=6
4e	0r	1g	2cc
4f#	.	.	.
4g	.	.	2b
4e	.	.	.
1f	.	1cc	1a
=7	=7	=7	=7
1e	0r	2cc	2g
.	.	2b	2g
1A	.	2.ee	4cc
.	.	.	4b
.	.	.	4cc
.	.	4dd	4dd
=8	=8	=8	=8
2c	0r	2cc	4ee
.	.	.	4ff
2G	.	2b	1gg
1d	.	1a	.
.	.	.	2ff#
=9	=9	=9	=9
1e	0c	2g	2gg
.	.	2g	1ee
2.A	.	4cc	.
.	.	4b	.
.	.	4cc	2ee
4B	.	4dd	.
=10	=10	=10	=10
4c	1c	4ee	1cc
4d	.	4ff	.
4e	.	4gg	.
4c	.	4ee	.
2d	1f	4ff	2a
.	.	4ee	.
2B-	.	2dd	2b-
=11	=11	=11	=11
1c	2f	1cc	1g
.	2e	.	.
1r	2.a	2.cc	4f
.	.	.	4g
.	.	.	4a
.	4g	4b	4b
=12	=12	=12	=12
2r	2f	2a	4cc
.	.	.	4dd
2c	2e	2g	4ee
.	.	.	4cc
1f	1d	1a	4dd
.	.	.	4ee
.	.	.	2ff
=13	=13	=13	=13
1g	2c	0cc	1ee
.	2c	.	.
2.a	4f	.	2r
.	4e	.	.
.	4f	.	[2cc
4g	4g	.	.
=14	=14	=14	=14
2f	4a	2r	2cc]
.	4b	.	.
2e	1cc	2gg	2ee
2f	.	2ff	1dd
2g	2b	4ee	.
.	.	4dd	.
=15	=15	=15	=15
1c	2a	1ee	2cc
.	1g	.	2cc
1d	.	1dd	1a
.	2f#	.	.
=16	=16	=16	=16
[0G	0g	2r	1b
.	.	2dd	.
.	.	2dd	2r
.	.	2dd	2dd
=17	=17	=17	=17
0G]	1r	2.g	2dd
.	.	.	2dd
.	.	4a	.
.	2r	4b	2.g
.	.	4a	.
.	2g	4b	.
.	.	4cc	4a
=18	=18	=18	=18
0r	2g	2dd	4b
.	.	.	4cc
.	2g	2gg	4dd
.	.	.	4b
.	2.c	2gg	4cc
.	.	.	4dd
.	.	2gg	[2ee
.	4d	.	.
=19	=19	=19	=19
0r	2e	1cc	2ee]
.	1f	.	1a
.	.	1dd	.
.	2g	.	2b
=20	=20	=20	=20
2r	4c	1ee	2cc
.	4d	.	.
2g	4e	.	4b
.	4f	.	4a
2g	4g	1dd	1b
.	4a	.	.
2g	4b	.	.
.	4g	.	.
=21	=21	=21	=21
1c	4a	2.cc	0r
.	4g	.	.
.	1g	.	.
.	.	4b	.
1d	.	2a	.
.	2f#	2a	.
=22	=22	=22	=22
2.e	2g	0g	2r
.	4e	.	2gg
4d	4f	.	.
2c	4g	.	2gg
.	4a	.	.
2B	4b	.	2gg
.	4g	.	.
=23	=23	=23	=23
1A	4a	0r	1cc
.	4b	.	.
.	1cc	.	.
1G	.	.	1dd
.	2b	.	.
=24	=24	=24	=24
2.c	1cc	2r	2.ee
.	.	2gg	.
4d	.	.	4dd
4e	1r	2gg	2cc
4f	.	.	.
4g	.	2gg	2b
4e	.	.	.
=25	=25	=25	=25
4f	0r	1cc	2a
4g	.	.	.
2a	.	.	1cc
2g	.	1dd	.
2g	.	.	2b
=26	=26	=26	=26
1c	2r	2.ee	2a
.	2cc	.	2g
.	.	4dd	.
2.f	2cc	4cc	1a
.	.	4b	.
.	2cc	4a	.
4e	.	4g	.
=27	=27	=27	=27
1d	1f	2a	2r
.	.	2b	2dd
2c	1g	2cc	2ee
2B	.	2dd	2gg
=28	=28	=28	=28
1A	2.a	2.cc	2ff
.	.	.	2ee
.	4g	4b	.
1r	2f	2a	2dd
.	2e	4g	2cc
.	.	4a	.
=29	=29	=29	=29
0r	2d	4b	2dd
.	.	4a	.
.	2f	1a	4cc
.	.	.	8b
.	.	.	8a
.	1e	.	1b
.	.	2g#	.
=30	=30	=30	=30
1d	2r	2a	1a
.	2f#	4r	.
.	.	4a	.
2d	2f#	2a	2r
2d	2f#	2a	2dd
=31	=31	=31	=31
2.G	2.g	1b	2dd
.	.	.	2dd
4A	8f	.	.
.	8e	.	.
2B	2d	1r	1g
[2c	[2e	.	.
=32	=32	=32	=32
2c]	2e]	2r	1a
2d	2f#	2dd	.
1G	2.g	2dd	[1b
.	.	2dd	.
.	4f	.	.
=33	=33	=33	=33
2r	1e	1g	2b]
2g	.	.	2cc
2g	1d	1a	1dd
2f	.	.	.
=34	=34	=34	=34
2.e	2r	1b	1.ee
.	2g	.	.
4d	.	.	.
2c	2g	2cc	.
2B	2g	[2dd	2dd
=35	=35	=35	=35
1A	1c	4dd]	2ee
.	.	4cc	.
.	.	1cc	2ff#
1G	1d	.	2gg
.	.	2b	[2gg
=36	=36	=36	=36
2.c	0e	1cc	4gg]
.	.	.	4ff
.	.	.	4ee
4B	.	.	4dd
2A	.	1r	2cc
2G	.	.	2b
=37	=37	=37	=37
1F	1.f	1.cc	1a
1F	.	.	1a
.	2f	2cc	.
=38	=38	=38	=38
0c	0e	0cc	0g
!! Hosanna
*Ibass	*Itenor	*Icalto	*Icant
!Bassus	!Tenor	!Altus	!Cantus
*clefF4	*clefGv2	*clefG2	*clefG2
*k[]	*k[]	*k[]	*k[]
*G:mix	*G:mix	*G:mix	*G:mix
*M4/2	*M4/2	*M4/2	*M4/2
=39	=39	=39	=39
1A	1r	0r	0r
[1c	1e	.	.
=40	=40	=40	=40
2c]	1.g	0r	0r
2B	.	.	.
1A	.	.	.
.	2f	.	.
=41	=41	=41	=41
2G	2.e	0r	0r
2.A	.	.	.
.	4d	.	.
.	4c	.	.
4G	4B	.	.
2E	[2e	.	.
=42	=42	=42	=42
1F	2e]	1a	1r
.	2d	.	.
2.C	1e	[1cc	1ee
4D	.	.	.
=43	=43	=43	=43
1E	2e	2cc]	1.gg
.	2e	2b	.
1r	2c	1a	.
.	2d	.	2ff
=44	=44	=44	=44
0r	2e	2g	2.ee
.	2.A	2.a	.
.	.	.	4dd
.	.	.	4cc
.	4B	4g	4b
.	2c	2e	[2ee
=45	=45	=45	=45
1r	1d	1f	2ee]
.	.	.	2dd
1A	2.c	2e	2ee
.	.	2e	[2cc
.	4d	.	.
=46	=46	=46	=46
1.c	1.e	4A	4cc]
.	.	4B	4b
.	.	4c	2g
.	.	4d	.
.	.	4e	2a
.	.	4f#	.
2B	2d	[2g	2b
=47	=47	=47	=47
2A	1c	2g]	1cc
2A	.	2f#	.
4G	2r	1g	1b
4A	.	.	.
4B	2d	.	.
4c	.	.	.
=48	=48	=48	=48
1d	1.f	1r	2r
.	.	.	2a
1A	.	2r	[1cc
.	2e	2e	.
=49	=49	=49	=49
0r	1d	1f	2cc]
.	.	.	2b
.	2c	2e	2.a
.	[2d	2d	.
.	.	.	4g
=50	=50	=50	=50
1r	4d]	1a	4f
.	4c	.	4e
.	2A	.	1a
2r	1B-	1d	.
[2d	.	.	2g
=51	=51	=51	=51
2d]	2A	1e	1a
2c#	2A	.	.
1d	[1f	2r	1a
.	.	2a	.
=52	=52	=52	=52
2A	2f]	1.cc	1r
2c	2e	.	.
1G	[1d	.	2r
.	.	2b	2dd
=53	=53	=53	=53
1D	2d]	1a	1.ff
.	2A	.	.
1r	1c	2g	.
.	.	[2cc	2ee
=54	=54	=54	=54
0r	1G	2cc]	1dd
.	.	2b	.
.	2r	4a	2cc
.	.	4g	.
.	2d	4f	[2dd
.	.	4e	.
=55	=55	=55	=55
1r	1f	2d	4dd]
.	.	.	4cc
.	.	1a	2a
2r	2.e	.	1b
2E	.	2g#	.
.	4d	.	.
=56	=56	=56	=56
2.F	2c	0a	1a
.	1f	.	.
4E	.	.	.
2D	.	.	2r
2C#	2e	.	2ee
=57	=57	=57	=57
4D	1d	2r	1ff
4E	.	.	.
4F	.	2a	.
4G	.	.	.
4A	2c	[1cc	1ee
4B	.	.	.
4c	2A	.	.
4d	.	.	.
=58	=58	=58	=58
2e	2c	2cc]	2r
1d	2G	2b	2dd
.	2A	[1a	2ff
2c#	2A	.	[2ee
=59	=59	=59	=59
2d	1.f	2a]	2ee]
2B-	.	2d	2.dd
1A	.	2.a	.
.	.	.	4cc
.	2e	.	2cc
.	.	4g	.
=60	=60	=60	=60
1D	1d	4f	2b-
.	.	4e	.
.	.	2f	2.a
2r	2c#	2e	.
.	.	.	4g
2D	[2d	4a	4f
.	.	4g	4g
=61	=61	=61	=61
2F	4d]	4f	4a
.	4c	4g	4b
2F	2A	2.a	4cc
.	.	.	4dd
2E	2B	.	1ee
.	.	4g	.
2C	2c	[2g	.
=62	=62	=62	=62
1D	1A	2g]	1dd
.	.	2f#	.
[1G	[1G	[1g	[1b
=63	=63	=63	=63
1G_	1G_	1g_	1b_
1G_	1G_	1g_	1b_
=64	=64	=64	=64
1G]	1G]	1g]	1b]
==	==	==	==
*-	*-	*-	*-
!!!CDT: 1525/^1526/-1594/2/2
!!!OCY: Italia
!!!AGN: Mass (Parody)
!!!AST: renaissance, vocal
!!!ASW: Motet 1563 (Palestrina)
!!!PWK: Masses, Book 6
!!!RNB: Cadence finals: D,A,C
!!!YOR: Le Opere Complete, v. 21, p. 1
!!!YOO: Rome, Italy: Fratelli Scalera
!!!END: 1992//
!!!EED: John Miller
!!!YEC: Copyright 2000, John Miller
!!!YEN: United States of America
!!!YEM: Rights to all derivative electronic formats reserved.
!!!YEM: Refer to licensing agreement for further details.
!!!YEM: This file must be accompanied by the licensing agreement.
!!!YEM: A copy of the licensing agreement may be found at http://www.music-cog.ohio-state.edu/HumdrumDatabases/Palestrina/license.txt
!!!EMD: converted to Humdrum by Bret Aarden
